images/icons/credit_card_icon.svg

<svg width="20" height="20" viewBox="0 0 20 20" fill="none" xmlns="http://www.w3.org/2000/svg">
<path d="M3.33317 16.6667C2.87484 16.6667 2.48234 16.5033 2.15567 16.1767C1.82901 15.85 1.66595 15.4578 1.66651 15V5C1.66651 4.54167 1.82984 4.14917 2.15651 3.8225C2.48317 3.49583 2.87539 3.33278 3.33317 3.33333H16.6665C17.1248 3.33333 17.5173 3.49667 17.844 3.82333C18.1707 4.15 18.3337 4.54222 18.3332 5V15C18.3332 15.4583 18.1698 15.8508 17.8432 16.1775C17.5165 16.5042 17.1243 16.6672 16.6665 16.6667H3.33317ZM3.33317 10H16.6665V6.66667H3.33317V10Z" fill="black"/>
</svg>

<svg xmlns="http://www.w3.org/2000/svg" width="20" height="20" fill="none"><path fill="#000" d="M3.333 16.667c-.458 0-.851-.163-1.177-.49A1.6 1.6 0 0 1 1.667 15V5c0-.458.163-.851.49-1.178a1.6 1.6 0 0 1 1.177-.489h13.333c.458 0 .851.163 1.178.49A1.6 1.6 0 0 1 18.333 5v10c0 .458-.163.851-.49 1.177a1.6 1.6 0 0 1-1.177.489H3.333zm0-6.667h13.333V6.667H3.333V10z"/></svg>
